img/logo.svg

<svg width="149" height="32" viewBox="0 0 149 32" fill="none" xmlns="http://www.w3.org/2000/svg">
<path fill-rule="evenodd" clip-rule="evenodd" d="M14.0798 7.75008C15.2221 6.91013 16.7778 6.91013 17.9201 7.75008L24.808 12.8147C25.6387 13.4255 26.1292 14.3951 26.1292 15.4262V25.758H19.6465V17.0661L15.9999 14.3848L12.3534 17.0661V25.758H5.87061V15.4262C5.87061 14.3951 6.36114 13.4255 7.19182 12.8147L14.0798 7.75008Z" fill="#15B2F5"/>
<rect x="12.395" y="25.7578" width="7.24329" height="5.24219" fill="white"/>
<path d="M40 24.796V6.91602H43.72V14.644H50.68V6.91602H54.4V24.796H50.68V17.884H43.72V24.796H40Z" fill="white"/>
<path d="M63.8181 25.084C62.5221 25.084 61.3381 24.788 60.2661 24.196C59.2101 23.604 58.3621 22.796 57.7221 21.772C57.0981 20.732 56.7861 19.556 56.7861 18.244C56.7861 16.916 57.0981 15.74 57.7221 14.716C58.3621 13.692 59.2101 12.884 60.2661 12.292C61.3381 11.7 62.5221 11.404 63.8181 11.404C65.1141 11.404 66.2901 11.7 67.3461 12.292C68.4021 12.884 69.2421 13.692 69.8661 14.716C70.5061 15.74 70.8261 16.916 70.8261 18.244C70.8261 19.556 70.5061 20.732 69.8661 21.772C69.2421 22.796 68.4021 23.604 67.3461 24.196C66.2901 24.788 65.1141 25.084 63.8181 25.084ZM63.8181 21.844C64.4741 21.844 65.0421 21.692 65.5221 21.388C66.0181 21.084 66.4021 20.66 66.6741 20.116C66.9621 19.572 67.1061 18.948 67.1061 18.244C67.1061 17.54 66.9621 16.924 66.6741 16.396C66.4021 15.852 66.0181 15.428 65.5221 15.124C65.0421 14.804 64.4741 14.644 63.8181 14.644C63.1621 14.644 62.5861 14.804 62.0901 15.124C61.5941 15.428 61.2021 15.852 60.9141 16.396C60.6421 16.924 60.5061 17.54 60.5061 18.244C60.5061 18.948 60.6421 19.572 60.9141 20.116C61.2021 20.66 61.5941 21.084 62.0901 21.388C62.5861 21.692 63.1621 21.844 63.8181 21.844Z" fill="white"/>
<path d="M72.9469 24.796V11.692H76.3069V14.884L75.9469 14.356C76.1389 13.348 76.6029 12.604 77.3389 12.124C78.0749 11.644 78.9549 11.404 79.9789 11.404C81.0669 11.404 82.0189 11.684 82.8349 12.244C83.6669 12.788 84.1869 13.524 84.3949 14.452L83.3629 14.548C83.7949 13.476 84.4109 12.684 85.2109 12.172C86.0109 11.66 86.9469 11.404 88.0189 11.404C88.9629 11.404 89.7949 11.612 90.5149 12.028C91.2509 12.444 91.8269 13.028 92.2429 13.78C92.6589 14.516 92.8669 15.38 92.8669 16.372V24.796H89.2669V17.14C89.2669 16.628 89.1709 16.188 88.9789 15.82C88.8029 15.452 88.5469 15.164 88.2109 14.956C87.8749 14.748 87.4669 14.644 86.9869 14.644C86.5229 14.644 86.1149 14.748 85.7629 14.956C85.4269 15.164 85.1629 15.452 84.9709 15.82C84.7949 16.188 84.7069 16.628 84.7069 17.14V24.796H81.1069V17.14C81.1069 16.628 81.0109 16.188 80.8189 15.82C80.6429 15.452 80.3869 15.164 80.0509 14.956C79.7149 14.748 79.3069 14.644 78.8269 14.644C78.3629 14.644 77.9549 14.748 77.6029 14.956C77.2669 15.164 77.0029 15.452 76.8109 15.82C76.6349 16.188 76.5469 16.628 76.5469 17.14V24.796H72.9469Z" fill="white"/>
<path d="M101.548 25.084C100.156 25.084 98.948 24.78 97.924 24.172C96.9 23.548 96.108 22.716 95.548 21.676C94.988 20.636 94.708 19.484 94.708 18.22C94.708 16.908 94.996 15.74 95.572 14.716C96.164 13.692 96.956 12.884 97.948 12.292C98.94 11.7 100.06 11.404 101.308 11.404C102.348 11.404 103.268 11.572 104.068 11.908C104.868 12.228 105.54 12.684 106.084 13.276C106.644 13.868 107.068 14.556 107.356 15.34C107.644 16.108 107.788 16.948 107.788 17.86C107.788 18.116 107.772 18.372 107.74 18.628C107.724 18.868 107.684 19.076 107.62 19.252H97.804V16.612H105.58L103.876 17.86C104.036 17.172 104.028 16.564 103.852 16.036C103.676 15.492 103.364 15.068 102.916 14.764C102.484 14.444 101.948 14.284 101.308 14.284C100.684 14.284 100.148 14.436 99.7 14.74C99.252 15.044 98.916 15.492 98.692 16.084C98.468 16.676 98.38 17.396 98.428 18.244C98.364 18.98 98.452 19.628 98.692 20.188C98.932 20.748 99.3 21.188 99.796 21.508C100.292 21.812 100.892 21.964 101.596 21.964C102.236 21.964 102.78 21.836 103.228 21.58C103.692 21.324 104.052 20.972 104.308 20.524L107.188 21.892C106.932 22.532 106.524 23.092 105.964 23.572C105.42 24.052 104.772 24.428 104.02 24.7C103.268 24.956 102.444 25.084 101.548 25.084Z" fill="white"/>
<path d="M110.172 24.796V6.91602H117.036C118.268 6.91602 119.356 7.13202 120.3 7.56402C121.26 7.99602 122.012 8.63602 122.556 9.48402C123.1 10.332 123.372 11.38 123.372 12.628C123.372 13.844 123.092 14.876 122.532 15.724C121.988 16.572 121.236 17.22 120.276 17.668C119.332 18.1 118.252 18.316 117.036 18.316H113.892V24.796H110.172ZM113.892 15.076H117.06C117.588 15.076 118.044 14.972 118.428 14.764C118.812 14.556 119.108 14.268 119.316 13.9C119.54 13.532 119.652 13.108 119.652 12.628C119.652 12.132 119.54 11.7 119.316 11.332C119.108 10.964 118.812 10.676 118.428 10.468C118.044 10.26 117.588 10.156 117.06 10.156H113.892V15.076Z" fill="white"/>
<path d="M125.494 24.796V11.692H128.854V14.836L128.614 14.38C128.902 13.276 129.374 12.532 130.03 12.148C130.702 11.748 131.494 11.548 132.406 11.548H133.174V14.668H132.046C131.166 14.668 130.454 14.94 129.91 15.484C129.366 16.012 129.094 16.764 129.094 17.74V24.796H125.494Z" fill="white"/>
<path d="M141.256 25.084C139.96 25.084 138.776 24.788 137.704 24.196C136.648 23.604 135.8 22.796 135.16 21.772C134.536 20.732 134.224 19.556 134.224 18.244C134.224 16.916 134.536 15.74 135.16 14.716C135.8 13.692 136.648 12.884 137.704 12.292C138.776 11.7 139.96 11.404 141.256 11.404C142.552 11.404 143.728 11.7 144.784 12.292C145.84 12.884 146.68 13.692 147.304 14.716C147.944 15.74 148.264 16.916 148.264 18.244C148.264 19.556 147.944 20.732 147.304 21.772C146.68 22.796 145.84 23.604 144.784 24.196C143.728 24.788 142.552 25.084 141.256 25.084ZM141.256 21.844C141.912 21.844 142.48 21.692 142.96 21.388C143.456 21.084 143.84 20.66 144.112 20.116C144.4 19.572 144.544 18.948 144.544 18.244C144.544 17.54 144.4 16.924 144.112 16.396C143.84 15.852 143.456 15.428 142.96 15.124C142.48 14.804 141.912 14.644 141.256 14.644C140.6 14.644 140.024 14.804 139.528 15.124C139.032 15.428 138.64 15.852 138.352 16.396C138.08 16.924 137.944 17.54 137.944 18.244C137.944 18.948 138.08 19.572 138.352 20.116C138.64 20.66 139.032 21.084 139.528 21.388C140.024 21.692 140.6 21.844 141.256 21.844Z" fill="white"/>
</svg>

<svg width="149" height="32" viewBox="0 0 149 32" fill="none" xmlns="http://www.w3.org/2000/svg"><path fill-rule="evenodd" clip-rule="evenodd" d="M14.08 7.75a3.241 3.241 0 013.84 0l6.888 5.065c.83.61 1.321 1.58 1.321 2.611v10.332h-6.483v-8.692L16 14.385l-3.647 2.681v8.692H5.871V15.426c0-1.03.49-2 1.32-2.611L14.08 7.75z" fill="#15B2F5"/><path fill="#fff" d="M12.395 25.758h7.243V31h-7.243zM40 24.796V6.916h3.72v7.728h6.96V6.916h3.72v17.88h-3.72v-6.912h-6.96v6.912H40zm23.818.288c-1.296 0-2.48-.296-3.552-.888a6.975 6.975 0 01-2.544-2.424c-.624-1.04-.936-2.216-.936-3.528 0-1.328.312-2.504.936-3.528a6.975 6.975 0 012.544-2.424c1.072-.592 2.256-.888 3.552-.888 1.296 0 2.472.296 3.528.888a6.786 6.786 0 012.52 2.424c.64 1.024.96 2.2.96 3.528 0 1.312-.32 2.488-.96 3.528a6.786 6.786 0 01-2.52 2.424c-1.056.592-2.232.888-3.528.888zm0-3.24c.656 0 1.224-.152 1.704-.456.496-.304.88-.728 1.152-1.272.288-.544.432-1.168.432-1.872 0-.704-.144-1.32-.432-1.848a3.062 3.062 0 00-1.152-1.272c-.48-.32-1.048-.48-1.704-.48-.656 0-1.232.16-1.728.48a3.228 3.228 0 00-1.176 1.272c-.272.528-.408 1.144-.408 1.848 0 .704.136 1.328.408 1.872.288.544.68.968 1.176 1.272.496.304 1.072.456 1.728.456zm9.129 2.952V11.692h3.36v3.192l-.36-.528c.192-1.008.656-1.752 1.392-2.232.736-.48 1.616-.72 2.64-.72 1.088 0 2.04.28 2.856.84.832.544 1.352 1.28 1.56 2.208l-1.032.096c.432-1.072 1.048-1.864 1.848-2.376.8-.512 1.736-.768 2.808-.768.944 0 1.776.208 2.496.624a4.44 4.44 0 011.728 1.752c.416.736.624 1.6.624 2.592v8.424h-3.6V17.14c0-.512-.096-.952-.288-1.32a2.014 2.014 0 00-.768-.864c-.336-.208-.744-.312-1.224-.312a2.36 2.36 0 00-1.224.312c-.336.208-.6.496-.792.864-.176.368-.264.808-.264 1.32v7.656h-3.6V17.14c0-.512-.096-.952-.288-1.32a2.014 2.014 0 00-.768-.864c-.336-.208-.744-.312-1.224-.312a2.36 2.36 0 00-1.224.312c-.336.208-.6.496-.792.864-.176.368-.264.808-.264 1.32v7.656h-3.6zm28.601.288c-1.392 0-2.6-.304-3.624-.912a6.472 6.472 0 01-2.376-2.496c-.56-1.04-.84-2.192-.84-3.456 0-1.312.288-2.48.864-3.504a6.64 6.64 0 012.376-2.424c.992-.592 2.112-.888 3.36-.888 1.04 0 1.96.168 2.76.504.8.32 1.472.776 2.016 1.368.56.592.984 1.28 1.272 2.064.288.768.432 1.608.432 2.52 0 .256-.016.512-.048.768-.016.24-.056.448-.12.624h-9.816v-2.64h7.776l-1.704 1.248c.16-.688.152-1.296-.024-1.824a2.368 2.368 0 00-.936-1.272c-.432-.32-.968-.48-1.608-.48-.624 0-1.16.152-1.608.456-.448.304-.784.752-1.008 1.344-.224.592-.312 1.312-.264 2.16-.064.736.024 1.384.264 1.944.24.56.608 1 1.104 1.32.496.304 1.096.456 1.8.456.64 0 1.184-.128 1.632-.384a2.743 2.743 0 001.08-1.056l2.88 1.368a4.3 4.3 0 01-1.224 1.68 5.972 5.972 0 01-1.944 1.128c-.752.256-1.576.384-2.472.384zm8.624-.288V6.916h6.864c1.232 0 2.32.216 3.264.648.96.432 1.712 1.072 2.256 1.92.544.848.816 1.896.816 3.144 0 1.216-.28 2.248-.84 3.096-.544.848-1.296 1.496-2.256 1.944-.944.432-2.024.648-3.24.648h-3.144v6.48h-3.72zm3.72-9.72h3.168c.528 0 .984-.104 1.368-.312a2.2 2.2 0 00.888-.864c.224-.368.336-.792.336-1.272 0-.496-.112-.928-.336-1.296a2.2 2.2 0 00-.888-.864c-.384-.208-.84-.312-1.368-.312h-3.168v4.92zm11.602 9.72V11.692h3.36v3.144l-.24-.456c.288-1.104.76-1.848 1.416-2.232.672-.4 1.464-.6 2.376-.6h.768v3.12h-1.128c-.88 0-1.592.272-2.136.816-.544.528-.816 1.28-.816 2.256v7.056h-3.6zm15.762.288c-1.296 0-2.48-.296-3.552-.888a6.975 6.975 0 01-2.544-2.424c-.624-1.04-.936-2.216-.936-3.528 0-1.328.312-2.504.936-3.528a6.975 6.975 0 012.544-2.424c1.072-.592 2.256-.888 3.552-.888 1.296 0 2.472.296 3.528.888a6.786 6.786 0 012.52 2.424c.64 1.024.96 2.2.96 3.528 0 1.312-.32 2.488-.96 3.528a6.786 6.786 0 01-2.52 2.424c-1.056.592-2.232.888-3.528.888zm0-3.24c.656 0 1.224-.152 1.704-.456.496-.304.88-.728 1.152-1.272.288-.544.432-1.168.432-1.872 0-.704-.144-1.32-.432-1.848a3.062 3.062 0 00-1.152-1.272c-.48-.32-1.048-.48-1.704-.48-.656 0-1.232.16-1.728.48a3.228 3.228 0 00-1.176 1.272c-.272.528-.408 1.144-.408 1.848 0 .704.136 1.328.408 1.872.288.544.68.968 1.176 1.272.496.304 1.072.456 1.728.456z"/></svg>
